_includes/icons/ios-sport.svg

<svg fill="#666" height="50" viewBox="0 0 50 50" width="50" xmlns="http://www.w3.org/2000/svg"><path d="m35.414063 3c-.050782 0-.101563.007813-.152344.015625-6.863281.039063-15.800781 2.890625-22.574219 9.660156-5.300781 5.304688-8.207031 11.949219-9.246094 17.867188-1.039062 5.914062-.359375 11.132812 2.261719 13.753906 1.867188 1.875 5.082031 2.703125 8.902344 2.703125 6.882812 0 15.898437-2.871094 22.71875-9.6875 5.300781-5.304687 8.203125-11.960937 9.238281-17.875 1.03125-5.917969.355469-11.136719-2.25-13.746094-1.828125-1.824218-4.960937-2.628906-8.675781-2.664062-.074219-.015625-.148438-.027344-.222656-.027344zm0 2c3.511718 0 6.269531.890625 7.480468 2.105469 1.699219 1.699219 2.664063 6.445312 1.699219 11.988281-.96875 5.539063-3.714844 11.835938-8.6875 16.800781-6.386719 6.390625-14.984375 9.105469-21.300781 9.105469-3.507813 0-6.265625-.890625-7.488281-2.117187-1.71875-1.714844-2.679688-6.460938-1.707032-11.996094.972657-5.535156 3.726563-11.824219 8.695313-16.792969 6.386719-6.390625 14.988281-9.09375 21.308594-9.09375zm-9.914063 11c-.828125 0-1.5.671875-1.5 1.5s.671875 1.5 1.5 1.5c.027344 0 .054688 0 .082031-.003906l2.003907 2.003906-2.585938 2.585938-2.003906-2.003907c.003906-.027343.003906-.054687.003906-.082031 0-.828125-.671875-1.5-1.5-1.5s-1.5.671875-1.5 1.5.671875 1.5 1.5 1.5c.027344 0 .054688 0 .082031-.003906l2.003907 2.003906-2.585938 2.585938-2.003906-2.003907c.003906-.027343.003906-.054687.003906-.082031 0-.828125-.671875-1.5-1.5-1.5s-1.5.671875-1.5 1.5.671875 1.5 1.5 1.5c.027344 0 .054688 0 .082031-.003906l2.003907 2.003906-2.292969 2.292969c-.261719.25-.367188.625-.273438.972656.089844.351563.363282.625.714844.714844.347656.09375.722656-.011719.972656-.273438l2.292969-2.292968 2.003906 2.003906c-.003906.027344-.003906.054687-.003906.082031 0 .828125.671875 1.5 1.5 1.5s1.5-.671875 1.5-1.5-.671875-1.5-1.5-1.5c-.027344 0-.054687 0-.082031.003906l-2.003906-2.003906 2.585937-2.585937 2.003906 2.003906c-.003906.027344-.003906.054687-.003906.082031 0 .828125.671875 1.5 1.5 1.5s1.5-.671875 1.5-1.5-.671875-1.5-1.5-1.5c-.027344 0-.054687 0-.082031.003906l-2.003906-2.003906 2.585937-2.585937 2.003906 2.003906c-.003906.027344-.003906.054687-.003906.082031 0 .828125.671875 1.5 1.5 1.5s1.5-.671875 1.5-1.5-.671875-1.5-1.5-1.5c-.027344 0-.054687 0-.082031.003906l-2.003906-2.003906 2.292968-2.292969c.296875-.289062.382813-.726562.222657-1.105468-.160157-.382813-.535157-.625-.949219-.613282-.261719.007813-.507813.117188-.6875.304688l-2.292969 2.292969-2.003906-2.003907c.003906-.027343.003906-.054687.003906-.082031 0-.828125-.671875-1.5-1.5-1.5z"/></svg>

<svg xmlns="http://www.w3.org/2000/svg" viewBox="0 0 50 50" width="50" height="50" fill="#666"><path d="M 35.414063 3 C 35.363281 3 35.3125 3.007813 35.261719 3.015625 C 28.398438 3.054688 19.460938 5.90625 12.6875 12.675781 C 7.386719 17.980469 4.480469 24.625 3.441406 30.542969 C 2.402344 36.457031 3.082031 41.675781 5.703125 44.296875 C 7.570313 46.171875 10.785156 47 14.605469 47 C 21.488281 47 30.503906 44.128906 37.324219 37.3125 C 42.625 32.007813 45.527344 25.351563 46.5625 19.4375 C 47.59375 13.519531 46.917969 8.300781 44.3125 5.691406 C 42.484375 3.867188 39.351563 3.0625 35.636719 3.027344 C 35.5625 3.011719 35.488281 3 35.414063 3 Z M 35.414063 5 C 38.925781 5 41.683594 5.890625 42.894531 7.105469 C 44.59375 8.804688 45.558594 13.550781 44.59375 19.09375 C 43.625 24.632813 40.878906 30.929688 35.90625 35.894531 C 29.519531 42.285156 20.921875 45 14.605469 45 C 11.097656 45 8.339844 44.109375 7.117188 42.882813 C 5.398438 41.167969 4.4375 36.421875 5.410156 30.886719 C 6.382813 25.351563 9.136719 19.0625 14.105469 14.09375 C 20.492188 7.703125 29.09375 5 35.414063 5 Z M 25.5 16 C 24.671875 16 24 16.671875 24 17.5 C 24 18.328125 24.671875 19 25.5 19 C 25.527344 19 25.554688 19 25.582031 18.996094 L 27.585938 21 L 25 23.585938 L 22.996094 21.582031 C 23 21.554688 23 21.527344 23 21.5 C 23 20.671875 22.328125 20 21.5 20 C 20.671875 20 20 20.671875 20 21.5 C 20 22.328125 20.671875 23 21.5 23 C 21.527344 23 21.554688 23 21.582031 22.996094 L 23.585938 25 L 21 27.585938 L 18.996094 25.582031 C 19 25.554688 19 25.527344 19 25.5 C 19 24.671875 18.328125 24 17.5 24 C 16.671875 24 16 24.671875 16 25.5 C 16 26.328125 16.671875 27 17.5 27 C 17.527344 27 17.554688 27 17.582031 26.996094 L 19.585938 29 L 17.292969 31.292969 C 17.03125 31.542969 16.925781 31.917969 17.019531 32.265625 C 17.109375 32.617188 17.382813 32.890625 17.734375 32.980469 C 18.082031 33.074219 18.457031 32.96875 18.707031 32.707031 L 21 30.414063 L 23.003906 32.417969 C 23 32.445313 23 32.472656 23 32.5 C 23 33.328125 23.671875 34 24.5 34 C 25.328125 34 26 33.328125 26 32.5 C 26 31.671875 25.328125 31 24.5 31 C 24.472656 31 24.445313 31 24.417969 31.003906 L 22.414063 29 L 25 26.414063 L 27.003906 28.417969 C 27 28.445313 27 28.472656 27 28.5 C 27 29.328125 27.671875 30 28.5 30 C 29.328125 30 30 29.328125 30 28.5 C 30 27.671875 29.328125 27 28.5 27 C 28.472656 27 28.445313 27 28.417969 27.003906 L 26.414063 25 L 29 22.414063 L 31.003906 24.417969 C 31 24.445313 31 24.472656 31 24.5 C 31 25.328125 31.671875 26 32.5 26 C 33.328125 26 34 25.328125 34 24.5 C 34 23.671875 33.328125 23 32.5 23 C 32.472656 23 32.445313 23 32.417969 23.003906 L 30.414063 21 L 32.707031 18.707031 C 33.003906 18.417969 33.089844 17.980469 32.929688 17.601563 C 32.769531 17.21875 32.394531 16.976563 31.980469 16.988281 C 31.71875 16.996094 31.472656 17.105469 31.292969 17.292969 L 29 19.585938 L 26.996094 17.582031 C 27 17.554688 27 17.527344 27 17.5 C 27 16.671875 26.328125 16 25.5 16 Z"/></svg>
